src/lib/packages/icons/src/assets/line/arrow-forward-square-alt.svg

<svg width="24" height="24" viewBox="0 0 24 24" fill="none" xmlns="http://www.w3.org/2000/svg">
<path d="M17.625 2.25H6.375C3.715 2.25 2.25 3.715 2.25 6.375V17.625C2.25 20.285 3.715 21.75 6.375 21.75H17.625C20.285 21.75 21.75 20.285 21.75 17.625V6.375C21.75 3.715 20.285 2.25 17.625 2.25ZM20.25 17.625C20.25 19.465 19.465 20.25 17.625 20.25H6.375C4.535 20.25 3.75 19.465 3.75 17.625V6.375C3.75 4.535 4.535 3.75 6.375 3.75H17.625C19.465 3.75 20.25 4.535 20.25 6.375V17.625ZM17.25 10.5039V12.752C17.25 13.166 16.914 13.502 16.5 13.502H16.187C16.187 13.502 16.1861 13.502 16.1851 13.502H14.25C13.836 13.502 13.5 13.166 13.5 12.752C13.5 12.338 13.836 12.002 14.25 12.002H14.968C14.26 11.076 13.1459 10.502 11.9399 10.502C10.1629 10.502 8.63698 11.704 8.22998 13.425C8.14898 13.77 7.84098 14.002 7.50098 14.002C7.44298 14.002 7.3859 13.9959 7.3269 13.9819C6.9239 13.8859 6.67502 13.4821 6.77002 13.0791C7.33702 10.6791 9.46297 9.00195 11.939 9.00195C13.406 9.00195 14.768 9.61908 15.75 10.6321V10.5039C15.75 10.0899 16.086 9.75391 16.5 9.75391C16.914 9.75391 17.25 10.0899 17.25 10.5039Z" fill="currentColor"/>
</svg>

<svg xmlns="http://www.w3.org/2000/svg" width="24" height="24" fill="none"><path fill="currentColor" d="M17.625 2.25H6.375c-2.66 0-4.125 1.465-4.125 4.125v11.25c0 2.66 1.465 4.125 4.125 4.125h11.25c2.66 0 4.125-1.465 4.125-4.125V6.375c0-2.66-1.465-4.125-4.125-4.125Zm2.625 15.375c0 1.84-.785 2.625-2.625 2.625H6.375c-1.84 0-2.625-.785-2.625-2.625V6.375c0-1.84.785-2.625 2.625-2.625h11.25c1.84 0 2.625.785 2.625 2.625v11.25Zm-3-7.121v2.248a.75.75 0 0 1-.75.75h-2.25a.75.75 0 0 1 0-1.5h.718a3.82 3.82 0 0 0-3.028-1.5 3.793 3.793 0 0 0-3.71 2.923.749.749 0 0 1-.903.557.75.75 0 0 1-.557-.903 5.286 5.286 0 0 1 5.169-4.077c1.467 0 2.829.617 3.811 1.63v-.128a.75.75 0 0 1 1.5 0Z"/></svg>
